X:1
T:The Buffalo Skinners
M:6/8
L:1/8
K:C
 z4 z A| G2 c E2 D| C2 C A,3/2 A,/2 C| E C2 CCD| C3- C z G| ccc B2 c|\
 d c2- c z A| G c2 E2 G| c3- c z G/2G/2| ccc B2 c| d c2- c z A| G2 c/2c/2 E2 G|\
 c3- c z A| G2 c E2 D| CCC A,2 C| E2 C/2C/2 C2 D| C3 z3|
